X: 11
T: The Rakes Of Mallow
R: polka
M: 2/4
L: 1/8
K: Gmaj
GB GB | G/A/B/c/ dA/G/ | FA FA | F/G/A/B/ cB/A/ |GD G>A | G/A/B/c/ d2 | cA d/e/d/c/ | BG G :|gf/e/ dc | B/G/(3A/B/c/ d(3d/e/f/ | gf/e/ dc | B/G/B/d/ Ae/f/ | gG dG | Bc d>B | c/B/A/G/ F/d/c/d/ | B(3A/B/A/ G :|


Tune 85	Setting 12591

